src/assets/images/supported_chain/Solona.svg

<svg width="159" height="24" viewBox="0 0 159 24" fill="none" xmlns="http://www.w3.org/2000/svg">
<g clip-path="url(#clip0_114_199)">
<path d="M27.2456 18.7222L22.9296 23.35C22.8362 23.4505 22.7232 23.5307 22.5975 23.5856C22.4718 23.6405 22.3361 23.6689 22.1989 23.669H1.73938C1.6418 23.669 1.54635 23.6405 1.46472 23.587C1.38309 23.5335 1.31883 23.4574 1.2798 23.368C1.24077 23.2785 1.22866 23.1797 1.24497 23.0835C1.26127 22.9873 1.30528 22.8979 1.37159 22.8263L5.68271 18.1985C5.77607 18.098 5.8891 18.0178 6.01483 17.9629C6.14054 17.908 6.27623 17.8796 6.4134 17.8795H26.8729C26.9713 17.8774 27.0683 17.9046 27.1513 17.9575C27.2344 18.0104 27.3001 18.0867 27.3398 18.1767C27.3798 18.2668 27.392 18.3667 27.3752 18.4638C27.3584 18.5608 27.3133 18.6507 27.2456 18.7222ZM22.9296 9.40095C22.8359 9.30089 22.7228 9.221 22.5971 9.16612C22.4715 9.11127 22.336 9.08261 22.1989 9.0819H1.73938C1.6418 9.08195 1.54635 9.11045 1.46472 9.16393C1.38309 9.21739 1.31883 9.29351 1.2798 9.38295C1.24077 9.47238 1.22866 9.57125 1.24497 9.66745C1.26127 9.76366 1.30528 9.85305 1.37159 9.92464L5.68271 14.5548C5.77641 14.6549 5.88954 14.7348 6.01517 14.7896C6.14081 14.8445 6.27633 14.8732 6.4134 14.8739H26.8729C26.9704 14.8734 27.0653 14.8445 27.1467 14.7909C27.228 14.7372 27.2919 14.6611 27.3306 14.5717C27.3693 14.4824 27.3812 14.3837 27.3647 14.2877C27.3484 14.1917 27.3045 14.1026 27.2383 14.0312L22.9296 9.40095ZM1.73938 6.07627H22.1989C22.3361 6.07615 22.4718 6.04773 22.5975 5.99283C22.7232 5.93795 22.8362 5.85772 22.9296 5.7572L27.2456 1.12947C27.3133 1.05798 27.3584 0.968057 27.3752 0.870998C27.392 0.77394 27.3798 0.674085 27.3398 0.584C27.3001 0.493915 27.2344 0.417624 27.1513 0.364729C27.0683 0.311832 26.9713 0.284694 26.8729 0.286728H6.4134C6.27623 0.286872 6.14054 0.315278 6.01483 0.370174C5.8891 0.42507 5.77607 0.505279 5.68271 0.605799L1.37159 5.23354C1.30528 5.30512 1.26127 5.39451 1.24497 5.49072C1.22866 5.58693 1.24077 5.68579 1.2798 5.77523C1.31883 5.86466 1.38309 5.94078 1.46472 5.99424C1.54635 6.04773 1.6418 6.07622 1.73938 6.07627Z" fill="url(#paint0_linear_114_199)"/>
<path d="M52.1891 10.1759H41.2432V6.57113H55.0339V2.96636H41.2067C40.7342 2.9638 40.266 3.05431 39.8286 3.23272C39.3911 3.41116 38.9929 3.67399 38.6573 4.00624C38.3214 4.33849 38.0542 4.73365 37.871 5.16912C37.6879 5.60462 37.5922 6.07192 37.5897 6.54434V10.1978C37.5917 10.6707 37.6867 11.1385 37.8696 11.5745C38.0525 12.0106 38.3194 12.4063 38.6553 12.7391C38.9914 13.0719 39.3897 13.3351 39.8274 13.5139C40.265 13.6926 40.7339 13.7833 41.2067 13.7807H52.1671V17.3855H37.8503V20.9902H52.1891C52.6616 20.9928 53.1297 20.9023 53.5672 20.7239C54.0046 20.5454 54.4028 20.2826 54.7385 19.9503C55.0743 19.6181 55.3415 19.223 55.5247 18.7875C55.7078 18.352 55.8036 17.8847 55.806 17.4122V13.7588C55.8041 13.2859 55.7091 12.8181 55.5261 12.3821C55.3432 11.946 55.0763 11.5503 54.7404 11.2175C54.4043 10.8848 54.0061 10.6215 53.5684 10.4428C53.1307 10.264 52.6618 10.1733 52.1891 10.1759Z" fill="#9A46FF"/>
<path d="M73.3939 2.96643H62.4066C61.9334 2.96258 61.464 3.05214 61.0253 3.22999C60.5869 3.40784 60.1877 3.67045 59.8509 4.00285C59.5138 4.33522 59.2458 4.73079 59.0622 5.16692C58.8783 5.60305 58.7823 6.07116 58.7799 6.54441V17.4123C58.7823 17.8856 58.8783 18.3537 59.0622 18.7898C59.2458 19.2259 59.5138 19.6215 59.8509 19.9539C60.1877 20.2863 60.5869 20.5489 61.0253 20.7267C61.464 20.9046 61.9334 20.9941 62.4066 20.9903H73.3939C73.8664 20.9929 74.3345 20.9023 74.7719 20.7239C75.2094 20.5455 75.6076 20.2827 75.9433 19.9504C76.2791 19.6182 76.5463 19.223 76.7295 18.7875C76.9126 18.352 77.0084 17.8847 77.0108 17.4123V6.54441C77.0084 6.07199 76.9126 5.60468 76.7295 5.16919C76.5463 4.73372 76.2791 4.33856 75.9433 4.00631C75.6076 3.67406 75.2094 3.41123 74.7719 3.23279C74.3345 3.05438 73.8664 2.96387 73.3939 2.96643ZM73.3671 17.3855H62.4334V6.5712H73.3622L73.3671 17.3855Z" fill="#9A46FF"/>
<path d="M111.877 2.96609H101.16C100.688 2.96353 100.22 3.05404 99.7823 3.23245C99.3449 3.41089 98.9466 3.67372 98.611 4.00597C98.2751 4.33821 98.0079 4.73337 97.8248 5.16885C97.6416 5.60434 97.5459 6.07165 97.5435 6.54407V20.99H101.197V15.0689H111.865V20.99H115.519V6.54407C115.516 6.06958 115.42 5.60027 115.235 5.16317C115.05 4.72609 114.781 4.32986 114.443 3.99727C114.104 3.66471 113.703 3.40239 113.263 3.22541C112.823 3.04844 112.352 2.96031 111.877 2.96609ZM111.851 11.4641H101.182V6.57086H111.851V11.4641Z" fill="#9A46FF"/>
<path d="M154.538 2.96636H143.821C143.349 2.9638 142.88 3.05431 142.443 3.23272C142.006 3.41116 141.608 3.67399 141.272 4.00624C140.936 4.33849 140.669 4.73365 140.485 5.16912C140.302 5.60462 140.207 6.07192 140.204 6.54434V20.9902H143.858V15.0691H154.501V20.9902H158.155V6.54434C158.152 6.07192 158.057 5.60462 157.874 5.16912C157.69 4.73365 157.423 4.33849 157.087 4.00624C156.751 3.67399 156.353 3.41116 155.916 3.23272C155.479 3.05431 155.01 2.9638 154.538 2.96636ZM154.501 11.4644H143.833V6.57113H154.501V11.4644Z" fill="#9A46FF"/>
<path d="M133.311 17.3854H131.85L126.625 4.47645C126.446 4.03109 126.138 3.6494 125.741 3.38035C125.343 3.11129 124.874 2.96712 124.394 2.96634H121.152C120.837 2.96473 120.525 3.02521 120.233 3.14429C119.942 3.26339 119.676 3.43876 119.452 3.6604C119.228 3.88207 119.05 4.14564 118.928 4.43611C118.806 4.72657 118.743 5.03823 118.741 5.35328V20.9902H122.394V6.57111H123.856L129.078 19.4801C129.26 19.9246 129.57 20.3047 129.97 20.572C130.369 20.8392 130.838 20.9814 131.319 20.9805H134.561C134.876 20.9821 135.188 20.9216 135.48 20.8025C135.771 20.6834 136.037 20.508 136.261 20.2864C136.484 20.0648 136.663 19.8012 136.785 19.5107C136.907 19.2202 136.97 18.9086 136.972 18.5935V2.96634H133.311V17.3854Z" fill="#9A46FF"/>
<path d="M83.8916 2.96631H80.2382V17.4122C80.2406 17.8857 80.3368 18.354 80.5207 18.7902C80.7046 19.2265 80.9728 19.6222 81.3098 19.9546C81.6469 20.287 82.0466 20.5496 82.4853 20.7273C82.9242 20.905 83.3938 20.9943 83.8673 20.9902H94.8277V17.3854H83.8916V2.96631Z" fill="#9A46FF"/>
</g>
<defs>
<linearGradient id="paint0_linear_114_199" x1="3.44434" y1="24.2268" x2="24.8976" y2="0.0407269" gradientUnits="userSpaceOnUse">
<stop offset="0.08" stop-color="#9945FF"/>
<stop offset="0.3" stop-color="#8752F3"/>
<stop offset="0.5" stop-color="#5497D5"/>
<stop offset="0.6" stop-color="#43B4CA"/>
<stop offset="0.72" stop-color="#28E0B9"/>
<stop offset="0.97" stop-color="#19FB9B"/>
</linearGradient>
<clipPath id="clip0_114_199">
<rect width="157.343" height="23.3823" fill="white" transform="translate(0.811279 0.286621)"/>
</clipPath>
</defs>
</svg>

<svg width="159" height="24" fill="none" xmlns="http://www.w3.org/2000/svg"><g clip-path="url(#a)"><path d="M27.246 18.722 22.93 23.35a1 1 0 0 1-.731.319H1.739a.501.501 0 0 1-.367-.843l4.31-4.628a.999.999 0 0 1 .731-.319h20.46a.499.499 0 0 1 .373.843ZM22.93 9.401a1.008 1.008 0 0 0-.731-.32H1.739a.502.502 0 0 0-.367.844l4.31 4.63a1.007 1.007 0 0 0 .731.319h20.46a.502.502 0 0 0 .365-.843l-4.308-4.63ZM1.74 6.076h20.459a.998.998 0 0 0 .73-.319l4.317-4.628a.5.5 0 0 0-.373-.842H6.413a.999.999 0 0 0-.73.319L1.372 5.234a.502.502 0 0 0 .367.842Z" fill="url(#b)"/><path d="M52.19 10.176H41.242V6.57h13.79V2.966H41.208a3.597 3.597 0 0 0-3.617 3.578v3.654a3.598 3.598 0 0 0 3.617 3.583h10.96v3.604H37.85v3.605h14.34a3.597 3.597 0 0 0 3.616-3.578V13.76a3.594 3.594 0 0 0-2.238-3.316 3.596 3.596 0 0 0-1.379-.267ZM73.394 2.966H62.407a3.599 3.599 0 0 0-3.627 3.578v10.868a3.592 3.592 0 0 0 1.07 2.542 3.596 3.596 0 0 0 2.557 1.036h10.987a3.596 3.596 0 0 0 3.617-3.578V6.544a3.596 3.596 0 0 0-3.617-3.578Zm-.027 14.42H62.433V6.57h10.93l.004 10.815ZM111.877 2.966H101.16a3.598 3.598 0 0 0-3.617 3.578V20.99h3.654v-5.921h10.668v5.921h3.654V6.544a3.6 3.6 0 0 0-3.642-3.578Zm-.026 8.498h-10.669V6.571h10.669v4.893ZM154.538 2.966h-10.717a3.597 3.597 0 0 0-3.617 3.578V20.99h3.654v-5.92h10.643v5.92h3.654V6.544a3.609 3.609 0 0 0-.281-1.375 3.611 3.611 0 0 0-1.958-1.936 3.597 3.597 0 0 0-1.378-.267Zm-.037 8.498h-10.668V6.571h10.668v4.893ZM133.311 17.385h-1.461l-5.225-12.909a2.41 2.41 0 0 0-2.231-1.51h-3.242a2.4 2.4 0 0 0-2.411 2.387V20.99h3.653V6.571h1.462l5.222 12.91a2.411 2.411 0 0 0 2.241 1.5h3.242a2.4 2.4 0 0 0 2.411-2.388V2.966h-3.661v14.42ZM83.892 2.966h-3.654v14.446a3.594 3.594 0 0 0 2.247 3.315 3.6 3.6 0 0 0 1.382.263h10.96v-3.605H83.893V2.966Z" fill="#9A46FF"/></g><defs><linearGradient id="b" x1="3.444" y1="24.227" x2="24.898" y2=".041" gradientUnits="userSpaceOnUse"><stop offset=".08" stop-color="#9945FF"/><stop offset=".3" stop-color="#8752F3"/><stop offset=".5" stop-color="#5497D5"/><stop offset=".6" stop-color="#43B4CA"/><stop offset=".72" stop-color="#28E0B9"/><stop offset=".97" stop-color="#19FB9B"/></linearGradient><clipPath id="a"><path fill="#fff" transform="translate(.811 .287)" d="M0 0h157.343v23.382H0z"/></clipPath></defs></svg>
